; HEADER_BLOCK_START
; generated by OrcaSlicer 2.1.1 on 2024-09-06 at 15:22:07
; total layer number: 30
; filament_density: 1.04
; filament_diameter: 1.75
; max_z_height: 6.00
; HEADER_BLOCK_END

; THUMBNAIL_BLOCK_START

;
; THUMBNAIL_BLOCK_END

; THUMBNAIL_BLOCK_START

;
; THUMBNAIL_BLOCK_END

; external perimeters extrusion width = 0.42mm
; perimeters extrusion width = 0.50mm
; infill extrusion width = 0.45mm
; solid infill extrusion width = 0.40mm
; top infill extrusion width = 0.40mm
; first layer extrusion width = 0.50mm

; EXECUTABLE_BLOCK_START
EXCLUDE_OBJECT_DEFINE NAME=0a.2_BackPanelMountCover_BPM.stl_id_0_copy_0 CENTER=175,175 POLYGON=[[108.5,172.147],[108.502,172.116],[108.51,172.086],[108.522,172.057],[108.538,172.03],[108.559,172.006],[123.441,157.123],[123.465,157.103],[123.492,157.086],[123.521,157.074],[123.552,157.067],[123.583,157.064],[226.417,157.064],[226.448,157.067],[226.479,157.074],[226.508,157.086],[226.535,157.103],[226.559,157.123],[241.441,172.006],[241.462,172.03],[241.478,172.057],[241.49,172.086],[241.498,172.116],[241.5,172.147],[241.5,192.736],[241.497,192.77],[241.488,192.804],[241.473,192.836],[241.453,192.864],[241.429,192.889],[241.4,192.909],[241.368,192.923],[241.335,192.932],[241.3,192.936],[108.7,192.936],[108.665,192.932],[108.632,192.923],[108.6,192.909],[108.571,192.889],[108.547,192.864],[108.527,192.836],[108.512,192.804],[108.503,192.77],[108.5,192.736],[108.5,172.147]]
M73 P0 R16
;TYPE:Custom
M104 S0
M140 S0
PRINT_START EXTRUDER=255 BED=105 LAYER=0.2 FILAMENT=ABS EXCLUDE=1 SURFACE="Textured PEI Plate"
; M190 S105
; M109 S255
; PRINT_START EXTRUDER=255 BED=105
; You can use following code instead if your PRINT_START macro support Chamber and print area bedmesh
; PRINT_START EXTRUDER=255 BED=105 Chamber=0 PRINT_MIN=109.8,158.364 PRINT_MAX=240.2,192.909
G90
G21
M83 ; use relative distances for extrusion
; Filament gcode
SET_PRESSURE_ADVANCE ADVANCE=0.013; Override pressure advance value
M106 S0
;LAYER_CHANGE
;Z:0.2
;HEIGHT:0.2
;BEFORE_LAYER_CHANGE
;0.2
G92 E0

G1 E-.8 F1800
;AFTER_LAYER_CHANGE
;0.2
SET_PRINT_STATS_INFO CURRENT_LAYER=1
M117 Layer 1/30 : PolyLite ABS
;_SET_FAN_SPEED_CHANGING_LAYER
SET_VELOCITY_LIMIT ACCEL=1000 ACCEL_TO_DECEL=500
SET_VELOCITY_LIMIT SQUARE_CORNER_VELOCITY=30
; printing object 0a.2_BackPanelMountCover_BPM.stl id:0 copy 0
EXCLUDE_OBJECT_START NAME=0a.2_BackPanelMountCover_BPM.stl_id_0_copy_0
G1 Z.4 F30000
G1 X153.034 Y190.527
G1 Z.4
G1 Z.2
G1 E.8 F1800
_ADAPTIVE_PA TYPE=Perimeter
;TYPE:Inner wall
;WIDTH:0.499999
G1 F3000
G1 X152.803 Y190.665 E.00997
G2 X152.248 Y191.301 I1.681 J2.028 E.03144
G1 X152.161 Y191.529 E.00904
G2 X150.837 Y191.445 I-1.19 J8.225 E.04924
G1 X111.264 Y191.445 E1.4664
G1 X111.264 Y173.209 E.67572
G1 X124.645 Y159.829 E.70122
G1 X135.522 Y159.829 E.40305
G2 X136.11 Y160.02 I.975 J-2.001 E.023
G1 X136.834 Y160.076 E.02692
G2 X137.857 Y159.829 I-.326 J-3.588 E.03913
G1 X143.568 Y159.829 E.21162
G1 X146.383 Y162.644 E.14752
G1 X146.99 Y163.205 E.03061
G1 X147.459 Y163.433 E.01935
G1 X147.885 Y163.496 E.01597
G1 X201.952 Y163.496 E2.0035
G1 X202.403 Y163.459 E.01676
G1 X202.882 Y163.292 E.01882
G1 X203.224 Y163.037 E.0158
G1 X206.432 Y159.829 E.16811
G1 X212.197 Y159.829 E.21364
G1 X212.365 Y159.904 E.00682
G1 X213.097 Y160.067 E.02779
G1 X213.422 Y160.075 E.01203
G1 X213.966 Y160.009 E.02033
G1 X214.478 Y159.829 E.02012
G1 X225.355 Y159.829 E.40305
G1 X238.736 Y173.209 E.70122
G1 X238.736 Y191.445 E.67572
G1 X200.046 Y191.445 E1.4337
G2 X197.838 Y191.529 I-.418 J17.96 E.08191
G1 X197.737 Y191.271 E.01028
G1 X197.377 Y190.831 E.02108
G1 X196.967 Y190.527 E.01891
G2 X197.802 Y188.03 I-3.744 J-2.641 E.09897
G1 X197.751 Y187.252 E.02888
G1 X197.624 Y186.691 E.02134
G1 X197.495 Y186.357 E.01324
G1 X197.589 Y186.361 E.00345
G2 X201.508 Y186.356 I1.681 J-231.166 E.14525
G1 X202.227 Y186.197 E.02727
G1 X202.895 Y185.889 E.02727
G1 X203.484 Y185.447 E.02727
G1 X203.965 Y184.89 E.02727
G1 X204.318 Y184.244 E.02727
G1 X204.518 Y183.599 E.02504
G1 X204.594 Y183.098 E.01878
G1 X204.546 Y182.688 E.01526
G1 X204.401 Y182.448 E.01041
G2 X204.398 Y175.144 I-1125.122 J-3.163 E.27064
G1 X204.326 Y174.299 E.03144
G1 X204.133 Y173.467 E.03166
G1 X203.891 Y172.818 E.02563
G2 X202.989 Y171.372 I-6.765 J3.214 E.0633
G2 X202.27 Y170.653 I-7.897 J7.178 E.0377
G1 X201.579 Y170.15 E.03166
G1 X200.823 Y169.751 E.03166
G1 X200.019 Y169.463 E.03166
G1 X199.182 Y169.293 E.03165
G1 X198.416 Y169.241 E.02845
G1 X187.95 Y169.241 E.38784
G1 X187.569 Y169.306 E.0143
G1 X187.225 Y169.5 E.01463
G1 X186.955 Y169.821 E.01556
G1 X185.939 Y171.618 E.0765
G1 X184.847 Y169.865 E.0765
G1 X184.548 Y169.5 E.01751
G1 X184.204 Y169.306 E.01463
G1 X183.824 Y169.241 E.0143
G1 X166.176 Y169.241 E.65396
G1 X165.796 Y169.306 E.0143
G1 X165.452 Y169.5 E.01463
G1 X165.206 Y169.779 E.0138
G1 X164.061 Y171.618 E.08025
G1 X163.045 Y169.821 E.07651
G1 X162.775 Y169.5 E.01556
G1 X162.431 Y169.306 E.01463
G1 X162.05 Y169.241 E.0143
G1 X151.533 Y169.241 E.38973
G1 X150.653 Y169.316 E.03271
G1 X149.821 Y169.509 E.03166
G1 X149.005 Y169.829 E.03248
G1 X148.28 Y170.238 E.03084
G1 X147.603 Y170.76 E.03166
G1 X147.007 Y171.372 E.03166
G1 X146.593 Y171.926 E.02563
G2 X146.105 Y172.818 I9.154 J5.578 E.0377
G1 X145.815 Y173.635 E.03211
G1 X145.647 Y174.46 E.0312
G1 X145.595 Y175.226 E.02845
G1 X145.595 Y182.448 E.26761
G1 X145.45 Y182.693 E.01055
G1 X145.408 Y182.894 E.00761
G1 X145.424 Y183.258 E.01351
G1 X145.632 Y184.127 E.03313
G1 X145.962 Y184.786 E.02727
G1 X146.422 Y185.359 E.02727
G1 X146.993 Y185.822 E.02722
G1 X147.637 Y186.148 E.02675
G1 X148.12 Y186.295 E.01872
G1 X148.856 Y186.378 E.02742
G1 X149.207 Y186.363 E.01304
G2 X152.489 Y186.358 I1.016 J-378.332 E.12159
G1 X152.437 Y186.503 E.00569
G1 X152.247 Y187.263 E.02904
G1 X152.198 Y188.034 E.02862
G1 X152.281 Y188.801 E.02859
G1 X152.494 Y189.543 E.0286
G2 X153.01 Y190.495 I3.628 J-1.35 E.04029
G1 X153.866 Y190.774 F30000
G1 F3000
G1 X153.413 Y190.818 E.01687
G2 X152.911 Y191.203 I.515 J1.192 E.02372
G1 X152.656 Y191.506 E.01467
G2 X152.529 Y192.074 I1.17 J.56 E.02174
G2 X150.837 Y191.902 I-1.518 J6.527 E.06321
G1 X110.807 Y191.902 E1.48334
G1 X110.807 Y173.02 E.69968
G1 X124.456 Y159.372 E.71526
M73 P1 R16
G1 X135.611 Y159.372 E.41337
G1 X136.163 Y159.566 E.0217
G1 X136.785 Y159.622 E.02314
G2 X137.778 Y159.372 I-.265 J-3.146 E.03809
G1 X143.757 Y159.372 E.22158
G1 X147.116 Y162.729 E.17597
G1 X147.555 Y162.982 E.0188
G1 X147.885 Y163.039 E.01242
G1 X202.187 Y163.035 E2.01221
G1 X202.673 Y162.886 E.01883
G1 X202.901 Y162.713 E.01059
G1 X206.243 Y159.372 E.17513
G1 X212.296 Y159.372 E.2243
G1 X212.721 Y159.539 E.01693
G1 X213.368 Y159.621 E.02418
G1 X213.887 Y159.559 E.01936
G1 X214.389 Y159.372 E.01985
G1 X225.544 Y159.372 E.41337
G1 X239.193 Y173.02 E.71526
G1 X239.193 Y191.902 E.69968
G1 X200.046 Y191.902 E1.45064
G2 X197.967 Y191.97 I-.39 J19.959 E.07713
G1 X197.471 Y192.074 E.01878
G2 X197.334 Y191.488 I-1.295 J-.008 E.02249
G1 X197.042 Y191.142 E.01679
G1 X196.846 Y190.991 E.00919
G1 X196.411 Y190.772 E.01804
G1 X196.19 Y190.765 E.00821
G2 X196.695 Y190.132 I-6.29 J-5.54 E.03001
G2 X197.267 Y188.739 I-4.852 J-2.805 E.056
G1 X197.346 Y188.05 E.0257
G1 X197.305 Y187.353 E.02586
G1 X197.127 Y186.645 E.02704
G1 X196.877 Y186.127 E.02132
G1 X196.636 Y185.827 E.01426
G2 X197.589 Y185.904 I9.27 J-108.799 E.03542
G3 X200.866 Y185.907 I.639 J999.401 E.12143
G1 X201.425 Y185.907 E.02072
G1 X202.05 Y185.775 E.02368
G1 X202.634 Y185.514 E.02368
G1 X203.149 Y185.136 E.02368
G1 X203.572 Y184.657 E.02368
G1 X203.859 Y184.165 E.02109
G2 X204.13 Y183.135 I-3.298 J-1.422 E.03963
G1 X204.128 Y182.899 E.00873
G1 X203.944 Y182.549 E.01468
G2 X203.942 Y175.177 I-1824.01 J-3.191 E.27316
G1 X203.879 Y174.396 E.02903
G1 X203.704 Y173.626 E.02925
G1 X203.463 Y172.978 E.02563
G2 X203.038 Y172.2 I-11.262 J5.644 E.03287
G1 X202.623 Y171.646 E.02563
G2 X201.996 Y171.019 I-9.744 J9.117 E.03287
G1 X201.36 Y170.551 E.02925
G1 X200.664 Y170.179 E.02925
G1 X199.922 Y169.91 E.02925
G1 X199.149 Y169.749 E.02924
G1 X198.416 Y169.698 E.02724
G1 X187.858 Y169.698 E.39122
G1 X187.573 Y169.811 E.01138
G1 X187.353 Y170.046 E.01193
G1 X185.957 Y172.513 E.10503
G1 X184.352 Y169.935 E.11254
G1 X184.052 Y169.737 E.01332
G1 X183.824 Y169.698 E.00858
G1 X166.085 Y169.698 E.65734
G1 X165.799 Y169.811 E.01138
G1 X165.594 Y170.021 E.01088
G1 X164.043 Y172.513 E.10877
G1 X162.588 Y169.941 E.10951
G1 X162.279 Y169.737 E.01372
G1 X162.05 Y169.698 E.00858
G1 X151.553 Y169.698 E.38898
G1 X150.751 Y169.763 E.02984
G1 X149.981 Y169.937 E.02925
G1 X149.224 Y170.23 E.03007
G1 X148.554 Y170.604 E.02843
G1 X147.926 Y171.083 E.02925
G1 X147.373 Y171.646 E.02925
G1 X146.959 Y172.2 E.02563
G2 X146.534 Y172.978 I11.562 J6.819 E.03287
G1 X146.262 Y173.732 E.0297
G1 X146.103 Y174.493 E.02879
G1 X146.052 Y175.226 E.02724
G3 X146.049 Y182.547 I-826.294 J3.222 E.27128
G1 X145.869 Y182.902 E.01477
G1 X145.871 Y183.166 E.00975
G1 X146.048 Y183.937 E.02934
G1 X146.328 Y184.512 E.02368
G1 X146.723 Y185.015 E.02368
G1 X147.214 Y185.422 E.02365
G1 X147.769 Y185.711 E.0232
G1 X148.253 Y185.857 E.01872
G1 X148.891 Y185.922 E.02377
G1 X149.188 Y185.906 E.01104
G2 X152.466 Y185.902 I.932 J-515.094 E.12145
G1 X153.331 Y185.831 E.03218
G1 X153.226 Y185.968 E.00642
G1 X152.878 Y186.624 E.02751
G1 X152.703 Y187.302 E.02596
G1 X152.653 Y187.994 E.0257
G1 X152.723 Y188.684 E.02569
G1 X152.949 Y189.437 E.02914
G1 X153.211 Y189.981 E.02237
G1 X153.54 Y190.453 E.02134
G1 X153.838 Y190.746 E.01547
G1 E-.56 F1800
;WIPE_START
G1 F3000
G1 X153.413 Y190.818 E-.10334
G1 X153.126 Y190.989 E-.08028
G1 X152.959 Y191.154 E-.05638
;WIPE_END
G1 Z.6 F30000
G1 X196.337 Y192.643 Z.6
G1 Z.2
G1 E.8 F1800
_ADAPTIVE_PA TYPE=ExternalPerimeter
;TYPE:Outer wall
;WIDTH:0.532044
G1 F3000
G1 X196.074 Y192.657 E.01045
;WIDTH:0.504311
G1 X195.811 Y192.67 E.00986
;WIDTH:0.476578
G1 X195.291 Y192.685 E.01828
;WIDTH:0.448266
G1 X194.772 Y192.686 E.01706
;WIDTH:0.46996
G1 X194.253 Y192.674 E.01797
;WIDTH:0.494967
G1 X193.993 Y192.661 E.00953
;WIDTH:0.519974
G1 X193.734 Y192.649 E.01006
;WIDTH:0.558151
G1 X193.473 Y192.63 E.01091
;WIDTH:0.596328
G1 X193.213 Y192.611 E.01172
;WIDTH:0.598724
G1 X193.199 Y192.609 E.00063
G1 E-.56 F1800
;WIPE_START
G1 F3000
G1 X193.213 Y192.611 E-.00335
G1 X193.473 Y192.63 E-.06267
G1 X193.734 Y192.649 E-.06267
G1 X193.993 Y192.661 E-.06242
G1 X194.197 Y192.671 E-.04889
;WIPE_END
G1 Z.6 F30000
G1 X162.174 Y191.447 Z.6
G1 Z.2
G1 E.8 F1800
_ADAPTIVE_PA TYPE=Perimeter
;TYPE:Inner wall
;WIDTH:0.499999
G1 F3000
G2 X163.646 Y190.041 I-5.869 J-7.622 E.07557
G1 X163.912 Y189.499 E.02236
G1 X163.988 Y188.991 E.01907
G1 X163.952 Y188.664 E.01219
G1 X163.732 Y188.086 E.0229
G1 X163.328 Y187.619 E.0229
G1 X162.992 Y187.404 E.01477
;WIDTH:0.541882
G1 X162.89 Y187.349 E.0047
;WIDTH:0.583765
G1 X162.787 Y187.295 E.00509
;WIDTH:0.625647
G1 X162.685 Y187.24 E.00549
;WIDTH:0.66753
G1 X162.582 Y187.185 E.00588
;WIDTH:0.709412
G1 X162.48 Y187.131 E.00628
;WIDTH:0.70983
G1 X162.006 Y187.128 E.02559
G1 X161.912 Y187.172 E.00562
;WIDTH:0.667864
G1 X161.818 Y187.216 E.00526
;WIDTH:0.625898
G1 X161.724 Y187.26 E.00491
;WIDTH:0.583932
G1 X161.63 Y187.304 E.00456
;WIDTH:0.541966
G1 X161.535 Y187.348 E.0042
;WIDTH:0.499999
G1 X161.153 Y187.567 E.01633
G2 X161.037 Y186.854 I-10.368 J1.316 E.02677
G1 X160.869 Y186.357 E.01945
G2 X161.537 Y186.362 I.422 J-12.161 E.02475
;WIDTH:0.542554
G1 X161.621 Y186.383 E.00352
;WIDTH:0.585109
G1 X161.705 Y186.404 E.00382
;WIDTH:0.627664
G1 X161.789 Y186.426 E.00412
;WIDTH:0.670219
G1 X161.874 Y186.447 E.00442
;WIDTH:0.70272
G1 X162.395 Y186.463 E.02791
G1 X162.511 Y186.443 E.00629
;WIDTH:0.662176
G1 X162.627 Y186.422 E.0059
;WIDTH:0.621632
G1 X162.742 Y186.402 E.00551
;WIDTH:0.581088
G1 X162.858 Y186.382 E.00513
;WIDTH:0.540544
G1 X162.974 Y186.362 E.00474
;WIDTH:0.499999
G1 X186.93 Y186.362 E.88773
;WIDTH:0.542087
G1 X187.04 Y186.383 E.00452
;WIDTH:0.584175
G1 X187.149 Y186.404 E.0049
;WIDTH:0.626263
G1 X187.259 Y186.425 E.00528
;WIDTH:0.668351
G1 X187.369 Y186.446 E.00566
;WIDTH:0.710438
G1 X187.478 Y186.467 E.00604
;WIDTH:0.716707
G1 X188.164 Y186.47 E.03744
;WIDTH:0.750026
G1 X188.943 Y186.487 E.04468
G2 X188.745 Y187.35 I4.549 J1.495 E.05084
G2 X188.126 Y187.142 I-.693 J1.036 E.0379
;WIDTH:0.716707
G1 X187.536 Y187.129 E.03224
;WIDTH:0.710438
G1 X187.485 Y187.163 E.00333
;WIDTH:0.670057
G1 X187.433 Y187.197 E.00313
;WIDTH:0.629676
G1 X187.382 Y187.23 E.00293
;WIDTH:0.589294
G1 X187.027 Y187.425 E.01791
;WIDTH:0.544647
G1 X186.672 Y187.619 E.01645
;WIDTH:0.499999
G1 X186.508 Y187.771 E.00827
G1 X186.166 Y188.285 E.0229
G1 X186.02 Y188.885 E.02289
G1 X186.039 Y189.282 E.01471
G1 X186.239 Y189.861 E.02273
G1 X186.498 Y190.223 E.01649
G2 X187.824 Y191.445 I9.288 J-8.751 E.06684
G1 X162.214 Y191.447 E.949
G1 E-.56 F1800
;WIPE_START
G1 F3000
G1 X162.705 Y191.003 E-.15885
G1 X162.952 Y190.772 E-.08115
;WIPE_END
G1 Z.6 F30000
G1 X160.662 Y191.911 Z.6
G1 Z.2
G1 E.8 F1800
G1 F3000
G2 X163.174 Y189.905 I-5.268 J-9.173 E.11958
G1 X163.375 Y189.616 E.01305
G1 X163.515 Y189.181 E.01693
G1 X163.498 Y188.722 E.01703
G1 X163.325 Y188.296 E.01703
G1 X163.017 Y187.955 E.01703
G1 X162.607 Y187.738 E.01722
G1 X162.222 Y187.672 E.01446
G1 X161.685 Y187.78 E.02028
G1 X161.268 Y188.059 E.01861
G1 X160.62 Y188.689 E.0335
G1 X160.684 Y188.402 E.01091
G1 X160.71 Y187.702 E.02596
G1 X160.635 Y187.131 E.02134
G2 X160.279 Y186.18 I-4.293 J1.066 E.0377
G1 X160.008 Y185.83 E.0164
G2 X161.056 Y185.905 I.959 J-6.074 E.03895
G1 X188.479 Y185.905 E1.01619
M73 P2 R16
G2 X189.96 Y185.832 I.22 J-10.724 E.05502
G1 X189.856 Y185.968 E.00634
G1 X189.521 Y186.585 E.02602
G2 X189.374 Y188.693 I3.78 J1.323 E.07925
G3 X188.672 Y188.005 I10.163 J-11.059 E.03645
G1 X188.233 Y187.745 E.01889
G1 X187.752 Y187.673 E.01803
G1 X187.234 Y187.807 E.0198
G1 X186.983 Y187.955 E.01082
G1 X186.675 Y188.296 E.01703
G1 X186.502 Y188.722 E.01703
G1 X186.485 Y189.181 E.01703
G1 X186.625 Y189.616 E.01693
G1 X186.826 Y189.905 E.01305
G2 X189.317 Y191.912 I8.237 J-7.676 E.11894
G1 X160.702 Y191.911 E1.06036
G1 E-.56 F1800
;WIPE_START
G1 F3000
G1 X161.062 Y191.682 E-.10227
G1 X161.523 Y191.367 E-.13407
G1 X161.535 Y191.358 E-.00366
;WIPE_END
G1 Z.6 F30000
G1 X157.274 Y191.218 Z.6
G1 Z.2
G1 E.8 F1800
_ADAPTIVE_PA TYPE=ExternalPerimeter
;TYPE:Outer wall
;WIDTH:0.6273
G1 F3000
G1 X157.765 Y191.088 E.02408
;WIDTH:0.64822
G1 X158.253 Y190.896 E.02573
;WIDTH:0.652608
G1 X158.291 Y190.878 E.00207
G1 E-.56 F1800
;WIPE_START
G1 F3000
G1 X158.253 Y190.896 E-.01004
G1 X157.765 Y191.088 E-.12585
G1 X157.346 Y191.199 E-.10411
;WIPE_END
G1 Z.6 F30000
G1 X156.795 Y192.61 Z.6
G1 Z.2
G1 E.8 F1800
;WIDTH:0.597516
G1 F3000
G1 X156.537 Y192.629 E.01164
;WIDTH:0.559477
G1 X156.278 Y192.648 E.01084
;WIDTH:0.521438
G1 X156.018 Y192.661 E.01011
;WIDTH:0.496084
G1 X155.758 Y192.673 E.00958
;WIDTH:0.47073
G1 X155.238 Y192.686 E.01803
;WIDTH:0.44797
G1 X154.719 Y192.685 E.01704
;WIDTH:0.475718
G1 X154.2 Y192.671 E.01822
;WIDTH:0.509195
G1 X153.909 Y192.654 E.01101
;WIDTH:0.542672
G1 X153.619 Y192.637 E.0118
G1 E-.56 F1800
;WIPE_START
G1 F3000
G1 X153.909 Y192.654 E-.06989
G1 X154.2 Y192.671 E-.06989
G1 X154.618 Y192.682 E-.10023
;WIPE_END
G1 Z.6 F30000
G1 X185.976 Y173.408 Z.6
G1 Z.2
G1 E.8 F1800
;WIDTH:0.499999
G1 F3000
G1 X187.751 Y170.271 E.13355
G1 X187.889 Y170.155 E.00669
G1 X198.416 Y170.155 E.39008
G1 X199.116 Y170.205 E.02603
G1 X199.825 Y170.357 E.02684
G1 X200.504 Y170.607 E.02684
G1 X201.141 Y170.953 E.02684
G1 X201.722 Y171.385 E.02684
G1 X202.117 Y171.776 E.0206
G1 X202.672 Y172.474 E.03303
G1 X202.924 Y172.932 E.01938
G1 X203.276 Y173.786 E.03424
G1 X203.432 Y174.493 E.02684
G3 X203.487 Y176.048 I-10.43 J1.143 E.05769
G1 X203.487 Y182.734 E.24777
G1 X203.672 Y182.957 E.01074
G1 X203.607 Y183.486 E.01976
G1 X203.442 Y183.977 E.01917
G1 X203.179 Y184.424 E.01923
G1 X202.814 Y184.825 E.02009
G1 X202.372 Y185.139 E.02009
G1 X201.874 Y185.354 E.02009
G1 X201.342 Y185.458 E.02009
G2 X197.589 Y185.447 I-2.214 J119.658 E.13906
G1 X196.841 Y185.385 E.02781
