; HEADER_BLOCK_START
; generated by OrcaSlicer 2.1.1 on 2024-09-05 at 17:11:03
; total layer number: 19
; filament_density: 1.04
; filament_diameter: 1.75
; max_z_height: 3.85
; HEADER_BLOCK_END

; THUMBNAIL_BLOCK_START

;
; THUMBNAIL_BLOCK_END

; THUMBNAIL_BLOCK_START

;
; THUMBNAIL_BLOCK_END

; external perimeters extrusion width = 0.42mm
; perimeters extrusion width = 0.50mm
; infill extrusion width = 0.45mm
; solid infill extrusion width = 0.40mm
; top infill extrusion width = 0.40mm
; first layer extrusion width = 0.50mm

; external perimeters extrusion width = 0.42mm
; perimeters extrusion width = 0.50mm
; infill extrusion width = 0.45mm
; solid infill extrusion width = 0.40mm
; top infill extrusion width = 0.40mm
; first layer extrusion width = 0.50mm

; EXECUTABLE_BLOCK_START
EXCLUDE_OBJECT_DEFINE NAME=2.9_CarbonBasketLidHandle_Spare.stl_id_0_copy_0 CENTER=175,193.016 POLYGON=[[140.5,192.343],[156.726,176.117],[156.774,176.076],[156.827,176.044],[156.885,176.02],[156.946,176.005],[157.009,176],[192.991,176],[193.054,176.005],[193.115,176.02],[193.173,176.044],[193.226,176.076],[193.274,176.117],[209.5,192.343],[209.5,202.381],[208.1,210.031],[141.9,210.031],[140.5,202.381],[140.5,192.343]]
EXCLUDE_OBJECT_DEFINE NAME=2.9_CarbonBasketLidHandle_Spare.stl_id_1_copy_0 CENTER=175,156.984 POLYGON=[[140.5,156.312],[156.726,140.086],[156.774,140.045],[156.827,140.012],[156.885,139.988],[156.946,139.974],[157.009,139.969],[192.991,139.969],[193.054,139.974],[193.115,139.988],[193.173,140.012],[193.226,140.045],[193.274,140.086],[209.5,156.312],[209.5,166.35],[208.1,174],[141.9,174],[140.5,166.35],[140.5,156.312]]
M73 P0 R14
;TYPE:Custom
M104 S0
M140 S0
PRINT_START EXTRUDER=255 BED=105 LAYER=0.2 FILAMENT=ABS EXCLUDE=1 SURFACE="Textured PEI Plate"
; M190 S105
; M109 S255
; PRINT_START EXTRUDER=255 BED=105
; You can use following code instead if your PRINT_START macro support Chamber and print area bedmesh
; PRINT_START EXTRUDER=255 BED=105 Chamber=0 PRINT_MIN=140.636,140.105 PRINT_MAX=209.364,208.146
G90
G21
M83 ; use relative distances for extrusion
; Filament gcode
SET_PRESSURE_ADVANCE ADVANCE=0.013; Override pressure advance value
M106 S0
;LAYER_CHANGE
;Z:0.2
;HEIGHT:0.2
;BEFORE_LAYER_CHANGE
;0.2
G92 E0

G1 E-.8 F1800
;AFTER_LAYER_CHANGE
;0.2
SET_PRINT_STATS_INFO CURRENT_LAYER=1
M117 Layer 1/19 : PolyLite ABS
;_SET_FAN_SPEED_CHANGING_LAYER
SET_VELOCITY_LIMIT ACCEL=1000 ACCEL_TO_DECEL=500
SET_VELOCITY_LIMIT SQUARE_CORNER_VELOCITY=30
; printing object 2.9_CarbonBasketLidHandle_Spare.stl id:0 copy 0
EXCLUDE_OBJECT_START NAME=2.9_CarbonBasketLidHandle_Spare.stl_id_0_copy_0
G1 Z.4 F30000
G1 X164.068 Y201.9
G1 Z.4
G1 Z.2
G1 E.8 F1800
_ADAPTIVE_PA TYPE=Perimeter
;TYPE:Inner wall
;WIDTH:0.499999
G1 F3000
G1 X164.036 Y202.068 E.00625
G1 X164.036 Y206.682 E.16836
G1 X159.264 Y206.682 E.1741
G1 X159.251 Y201.086 E.20417
G1 X159.169 Y200.8 E.01089
G1 X158.929 Y200.448 E.01552
G2 X155.874 Y197.399 I-253.969 J251.459 E.15751
G1 X155.398 Y197.078 E.02092
G1 X154.874 Y196.915 E.02003
G1 X154.481 Y196.88 E.01441
G1 X153.906 Y196.961 E.02119
G1 X153.358 Y197.218 E.02208
G1 X153.05 Y197.469 E.01447
G1 X149.97 Y200.549 E.15896
G1 X149.777 Y200.951 E.01625
G1 X149.736 Y201.256 E.01125
G1 X149.736 Y206.682 E.19797
G1 X143.364 Y206.682 E.23248
G1 X143.364 Y203.496 E.11624
G1 X143.334 Y202.989 E.01856
G1 X143.249 Y202.749 E.00929
G1 X143.029 Y202.44 E.01382
G1 X142.101 Y201.511 E.04793
G1 X142.101 Y193.006 E.31032
G1 X157.506 Y177.601 E.79491
G1 X192.492 Y177.601 E1.27649
G1 X207.899 Y193.006 E.79496
G1 X207.899 Y201.511 E.31032
G1 X206.855 Y202.556 E.0539
G1 X206.666 Y202.989 E.01723
G1 X206.636 Y203.248 E.00953
G1 X206.636 Y206.682 E.1253
G1 X200.264 Y206.682 E.23248
G2 X200.253 Y201.094 I-280.185 J-2.215 E.20389
G1 X200.15 Y200.759 E.01277
G1 X199.929 Y200.448 E.01392
G1 X196.858 Y197.377 E.1585
G1 X196.295 Y197.033 E.02406
G1 X195.75 Y196.889 E.02054
G1 X195.162 Y196.908 E.02149
G1 X194.87 Y196.973 E.01091
G1 X194.415 Y197.184 E.01827
G1 X194.056 Y197.463 E.0166
G2 X190.969 Y200.565 I107.016 J109.595 E.15969
G1 X190.783 Y200.932 E.01503
G1 X190.736 Y201.256 E.01194
G1 X190.736 Y206.682 E.19797
G1 X185.964 Y206.682 E.1741
G1 X185.964 Y202.068 E.16836
G1 X185.883 Y201.646 E.01568
G1 X185.738 Y201.386 E.01089
G1 X185.464 Y201.123 E.01386
G1 X185.171 Y200.98 E.01186
G1 X184.821 Y200.925 E.01293
G1 X181.443 Y200.925 E.12327
G1 X179.254 Y197.745 E.14086
G1 X178.875 Y197.398 E.01876
;WIDTH:0.542611
G1 X178.762 Y197.347 E.00492
;WIDTH:0.585222
G1 X178.65 Y197.296 E.00534
;WIDTH:0.627834
G1 X178.538 Y197.245 E.00576
;WIDTH:0.670445
G1 X178.425 Y197.194 E.00618
;WIDTH:0.713056
G1 X178.313 Y197.144 E.0066
G1 X171.605 Y197.144 E.35883
G1 X171.509 Y197.194 E.00581
;WIDTH:0.670445
G1 X171.413 Y197.245 E.00544
;WIDTH:0.627834
G1 X171.317 Y197.296 E.00507
;WIDTH:0.585222
G1 X171.221 Y197.347 E.0047
;WIDTH:0.542611
G1 X171.125 Y197.398 E.00433
;WIDTH:0.499999
G1 X170.746 Y197.745 E.01876
G1 X168.557 Y200.925 E.14086
G1 X165.033 Y200.925 E.12857
G1 X164.671 Y201.044 E.01392
G1 X164.341 Y201.29 E.01502
G1 X164.117 Y201.646 E.01534
G1 X164.076 Y201.861 E.00797
G1 X164.509 Y201.984 F30000
G1 F3000
G1 X164.493 Y202.068 E.00312
G1 X164.493 Y207.139 E.18503
G1 X158.807 Y207.139 E.20745
G1 X158.807 Y201.256 E.21465
G1 X158.75 Y200.982 E.01021
G1 X158.606 Y200.772 E.00931
G1 X155.617 Y197.783 E.15422
G1 X155.194 Y197.487 E.01883
G1 X154.697 Y197.343 E.01888
G1 X154.125 Y197.375 E.02091
G1 X153.681 Y197.561 E.01757
G1 X153.374 Y197.792 E.01403
G1 X150.394 Y200.772 E.15375
G1 X150.261 Y200.958 E.00835
G1 X150.193 Y201.256 E.01116
G1 X150.193 Y207.139 E.21465
G1 X142.907 Y207.139 E.26583
G1 X142.907 Y203.248 E.14197
G1 X142.838 Y202.949 E.01122
G1 X142.706 Y202.763 E.00829
G1 X141.644 Y201.701 E.05484
G1 X141.644 Y192.817 E.32414
G1 X157.317 Y177.144 E.80873
G1 X192.681 Y177.144 E1.2903
G1 X208.356 Y192.817 E.80878
M73 P1 R14
G1 X208.356 Y201.701 E.32414
G1 X207.294 Y202.763 E.05483
G1 X207.162 Y202.949 E.00829
G1 X207.093 Y203.248 E.01122
G1 X207.093 Y207.139 E.14197
G1 X199.807 Y207.139 E.26583
G1 X199.807 Y201.256 E.21465
G1 X199.739 Y200.958 E.01116
G1 X199.606 Y200.772 E.00835
G1 X196.626 Y197.792 E.15376
G1 X196.2 Y197.492 E.01902
G1 X195.682 Y197.341 E.01967
G1 X195.155 Y197.369 E.01927
G1 X194.681 Y197.561 E.01865
G1 X194.377 Y197.788 E.01385
G1 X191.418 Y200.747 E.15267
G1 X191.25 Y200.982 E.01055
G1 X191.193 Y201.256 E.01021
G1 X191.193 Y207.139 E.21465
G1 X185.507 Y207.139 E.20745
G1 X185.507 Y201.951 E.18931
G1 X185.371 Y201.659 E.01176
G1 X185.126 Y201.454 E.01166
G1 X184.821 Y201.382 E.01141
G1 X181.203 Y201.382 E.13204
G1 X178.878 Y198.004 E.14963
G1 X178.65 Y197.796 E.01126
G1 X178.313 Y197.707 E.01272
G1 X171.644 Y197.707 E.24332
G1 X171.35 Y197.796 E.01121
G1 X171.122 Y198.004 E.01126
G1 X168.797 Y201.382 E.14963
G1 X165.179 Y201.382 E.13204
G1 X164.969 Y201.415 E.00776
G1 X164.728 Y201.551 E.01009
G1 X164.541 Y201.815 E.01177
G1 X164.517 Y201.945 E.00482
G1 X164.95 Y202.068 F30000
_ADAPTIVE_PA TYPE=ExternalPerimeter
;TYPE:Outer wall
G1 F3000
G1 X164.95 Y207.596 E.20171
G1 X158.35 Y207.596 E.24081
G1 X158.35 Y201.256 E.23133
G1 X158.283 Y201.095 E.00638
G1 X155.303 Y198.115 E.15376
G1 X155.019 Y197.913 E.01273
G1 X154.639 Y197.798 E.01446
G1 X154.241 Y197.819 E.01454
G1 X153.874 Y197.975 E.01455
G1 X153.697 Y198.115 E.00824
G1 X150.717 Y201.095 E.15375
G1 X150.65 Y201.256 E.00638
G1 X150.65 Y207.596 E.23133
G1 X142.45 Y207.596 E.29918
G1 X142.45 Y203.248 E.15865
G1 X142.383 Y203.087 E.00638
G1 X141.186 Y201.89 E.06174
G1 X141.186 Y192.627 E.33795
G1 X157.128 Y176.686 E.82254
G1 X192.87 Y176.686 E1.30412
G1 X208.814 Y192.627 E.82259
G1 X208.814 Y200.198 E.27621
G1 X208.814 Y201.89 E.06174
G1 X207.617 Y203.087 E.06174
G1 X207.55 Y203.248 E.00638
G1 X207.55 Y207.596 E.15865
G1 X199.35 Y207.596 E.29919
G1 X199.35 Y201.256 E.23133
M73 P1 R13
G1 X199.283 Y201.095 E.00638
G1 X196.303 Y198.115 E.15376
G1 X196.01 Y197.91 E.01305
G1 X195.639 Y197.798 E.01414
G1 X195.241 Y197.819 E.01453
G1 X194.874 Y197.975 E.01455
G1 X194.698 Y198.114 E.00818
G1 X191.717 Y201.095 E.15381
G1 X191.65 Y201.256 E.00638
G1 X191.65 Y207.596 E.23133
G1 X185.05 Y207.596 E.24081
G1 X185.05 Y202.068 E.20171
G1 X184.989 Y201.913 E.0061
G1 X184.821 Y201.839 E.00667
G1 X180.962 Y201.839 E.14081
G1 X178.46 Y198.203 E.16107
G1 X178.313 Y198.164 E.00553
G1 X171.653 Y198.164 E.24299
G1 X171.499 Y198.263 E.00668
G1 X169.038 Y201.839 E.15839
G1 X165.179 Y201.839 E.14081
G1 X165.011 Y201.913 E.00667
G1 X164.965 Y202.031 E.00464
G1 E-.56 F1800
;WIPE_START
G1 F3000
G1 X164.962 Y203.031 E-.24
;WIPE_END
G1 Z.6 F30000
G1 X163.783 Y196.321 Z.6
G1 Z.2
G1 E.8 F1800
_ADAPTIVE_PA TYPE=Perimeter
;TYPE:Inner wall
G1 F3000
G1 X163.421 Y196.14 E.01478
G1 X163.2 Y195.922 E.01129
G1 X161.994 Y194.36 E.07203
G3 X160.753 Y191.548 I5.552 J-4.131 E.11308
G1 X160.657 Y190.643 E.03321
G1 X160.689 Y189.733 E.03321
G1 X160.848 Y188.837 E.03322
G1 X161.132 Y187.972 E.03321
G1 X161.535 Y187.155 E.03321
G1 X162.064 Y186.38 E.03425
G1 X167.279 Y179.958 E.30184
G1 X167.507 Y179.745 E.01139
G1 X168.01 Y179.536 E.01987
G1 X181.834 Y179.536 E.50438
G1 X182.188 Y179.592 E.01307
G1 X182.493 Y179.745 E.01246
G1 X182.721 Y179.958 E.01139
G1 X187.907 Y186.344 E.30014
G3 X188.973 Y188.247 I-5.904 J4.558 E.07988
G1 X189.217 Y189.124 E.03321
G1 X189.336 Y190.026 E.03322
G1 X189.326 Y190.937 E.03321
G1 X189.189 Y191.837 E.03321
G3 X188.541 Y193.542 I-7.538 J-1.89 E.06672
G1 X188.034 Y194.323 E.03397
G1 X186.8 Y195.922 E.07371
G1 X186.579 Y196.14 E.01129
G1 X186.217 Y196.321 E.01478
G1 X185.895 Y196.367 E.01186
G1 X179.146 Y196.367 E.24626
;WIDTH:0.542611
G1 X178.979 Y196.388 E.0067
;WIDTH:0.585222
G1 X178.813 Y196.409 E.00727
;WIDTH:0.627834
G1 X178.646 Y196.431 E.00784
;WIDTH:0.670445
G1 X178.479 Y196.452 E.00841
;WIDTH:0.713056
G1 X178.313 Y196.473 E.00898
G1 X171.687 Y196.473 E.35443
G1 X171.585 Y196.455 E.00553
;WIDTH:0.670445
G1 X171.483 Y196.437 E.00518
;WIDTH:0.627834
G1 X171.382 Y196.419 E.00483
;WIDTH:0.585222
G1 X171.28 Y196.401 E.00448
;WIDTH:0.542611
G1 X171.178 Y196.383 E.00413
;WIDTH:0.499999
G1 X170.021 Y196.367 E.0422
G1 X164.105 Y196.367 E.21587
M73 P2 R13
G1 X163.823 Y196.326 E.0104
G1 E-.56 F1800
;WIPE_START
G1 F3000
G1 X163.421 Y196.14 E-.10638
G1 X163.2 Y195.922 E-.07429
G1 X163.049 Y195.727 E-.05933
;WIPE_END
G1 Z.6 F30000
G1 X181.905 Y180.004 Z.6
G1 Z.2
G1 E.8 F1800
G1 F3000
G1 X182.046 Y180.027 E.00523
G3 X182.285 Y180.146 I-.228 J.753 E.00979
G1 X187.552 Y186.632 E.30484
G3 X188.552 Y188.425 I-5.566 J4.28 E.07518
G1 X188.775 Y189.241 E.03087
G1 X188.882 Y190.08 E.03087
G1 X188.869 Y190.926 E.03087
G1 X188.738 Y191.762 E.03087
G1 X188.491 Y192.571 E.03087
G1 X188.132 Y193.337 E.03087
G1 X187.661 Y194.059 E.03145
G1 X186.438 Y195.643 E.073
G1 X186.231 Y195.822 E.01
G1 X185.975 Y195.91 E.00987
G1 X184.821 Y195.91 E.04209
G1 X171.687 Y195.91 E.47922
G3 X164.105 Y195.91 I-3.791 J-715.469 E.27666
G1 X163.834 Y195.854 E.01009
G1 X163.605 Y195.699 E.01008
G1 X162.356 Y194.08 E.0746
G3 X161.4 Y192.263 I5.67 J-4.141 E.07518
G1 X161.201 Y191.459 E.03024
G1 X161.112 Y190.6 E.03149
G1 X161.145 Y189.755 E.03087
G1 X161.297 Y188.922 E.03087
G1 X161.565 Y188.12 E.03087
G1 X161.942 Y187.363 E.03087
G1 X162.431 Y186.653 E.03145
G1 X167.634 Y180.246 E.30112
G1 X167.771 Y180.118 E.00683
G1 X168.072 Y179.993 E.01192
G1 X181.834 Y179.993 E.5021
G1 X181.865 Y179.998 E.00115
G1 X181.834 Y180.45 F30000
_ADAPTIVE_PA TYPE=ExternalPerimeter
;TYPE:Outer wall
G1 F3000
G1 X181.98 Y180.497 E.00561
G1 X186.25 Y185.754 E.24711
G3 X187.438 Y187.241 I-18.927 J16.339 E.06948
G1 X187.824 Y187.884 E.02735
G1 X188.131 Y188.603 E.02852
G1 X188.334 Y189.358 E.02852
G1 X188.428 Y190.134 E.02853
G1 X188.412 Y190.916 E.02852
G1 X188.287 Y191.687 E.02852
G1 X188.055 Y192.434 E.02853
G1 X187.72 Y193.14 E.02853
G1 X187.288 Y193.794 E.0286
G1 X186.076 Y195.364 E.07234
G1 X185.925 Y195.453 E.0064
G1 X184.821 Y195.453 E.04026
G1 X171.687 Y195.453 E.47922
G3 X170.021 Y195.453 I-.833 J-89.511 E.06078
G1 X164.105 Y195.453 E.21587
G1 X163.94 Y195.384 E.00652
G1 X162.718 Y193.801 E.07297
G1 X162.484 Y193.474 E.01465
G1 X162.114 Y192.822 E.02735
G1 X161.826 Y192.096 E.02852
G1 X161.646 Y191.352 E.0279
G1 X161.567 Y190.557 E.02915
G1 X161.602 Y189.776 E.02852
G1 X161.746 Y189.008 E.02853
G1 X161.997 Y188.268 E.02852
G1 X162.349 Y187.57 E.02853
G1 X162.797 Y186.927 E.0286
G1 X167.989 Y180.534 E.30045
G1 X168.133 Y180.45 E.00608
G1 X181.794 Y180.45 E.49845
G1 E-.56 F1800
;WIPE_START
G1 F3000
G1 X181.98 Y180.497 E-.04615
G1 X182.49 Y181.124 E-.19385
;WIPE_END
G1 Z.6 F30000
G1 X207.785 Y193.346 Z.6
G1 Z.2
G1 E.8 F1800
_ADAPTIVE_PA TYPE=BottomSurface
;TYPE:Bottom surface
;WIDTH:0.501945
G1 F6300
G1 X192.359 Y177.921 E.79933
G1 X191.711 Y177.921 E.02377
G1 X207.579 Y193.789 E.8223
G1 X207.579 Y194.438 E.02379
G1 X191.062 Y177.921 E.85594
G1 X190.412 Y177.921 E.02379
G1 X207.579 Y195.088 E.88957
G1 X207.579 Y195.737 E.02379
G1 X189.763 Y177.921 E.92321
G1 X189.114 Y177.921 E.02379
G1 X207.579 Y196.386 E.95685
G1 X207.579 Y197.035 E.02379
G1 X188.465 Y177.921 E.99049
G1 X187.816 Y177.921 E.02379
G1 X207.579 Y197.684 E1.02413
G1 X207.579 Y198.333 E.02379
G1 X187.167 Y177.921 E1.05777
G1 X186.517 Y177.921 E.02379
G1 X207.579 Y198.983 E1.09141
G1 X207.579 Y199.632 E.02379
G1 X185.868 Y177.921 E1.12504
G1 X185.219 Y177.921 E.02379
G1 X207.579 Y200.281 E1.15868
G1 X207.579 Y200.93 E.02379
G1 X184.57 Y177.921 E1.19232
G1 X183.921 Y177.921 E.02379
G1 X207.479 Y201.479 E1.22078
M73 P3 R13
G1 X207.156 Y201.805 E.01682
G1 X183.272 Y177.921 E1.23764
G1 X182.622 Y177.921 E.02379
G1 X206.832 Y202.13 E1.25449
G2 X206.536 Y202.483 I1.101 J1.224 E.01694
G1 X181.973 Y177.921 E1.27278
G1 X181.324 Y177.921 E.02379
G1 X206.35 Y202.946 E1.29681
G2 X206.316 Y203.562 I2.656 J.456 E.02262
G1 X184.951 Y182.197 E1.10711
G1 X182.965 Y179.752 E.11541
G1 X182.677 Y179.483 E.01444
G1 X182.287 Y179.287 E.01602
G1 X181.995 Y179.24 E.01084
G1 X180.675 Y177.921 E.06838
G1 X180.026 Y177.921 E.02379
G1 X181.321 Y179.216 E.06712
G1 X180.672 Y179.216 E.02379
G1 X179.377 Y177.921 E.06712
G1 X178.727 Y177.921 E.02379
G1 X180.023 Y179.216 E.06712
G1 X179.374 Y179.216 E.02379
G1 X178.078 Y177.921 E.06712
G1 X177.429 Y177.921 E.02379
G1 X178.724 Y179.216 E.06712
G1 X178.075 Y179.216 E.02379
G1 X176.78 Y177.921 E.06712
G1 X176.131 Y177.921 E.02379
G1 X177.426 Y179.216 E.06712
G1 X176.777 Y179.216 E.02379
G1 X175.482 Y177.921 E.06712
G1 X174.833 Y177.921 E.02379
G1 X176.128 Y179.216 E.06712
G1 X175.479 Y179.216 E.02379
G1 X174.183 Y177.921 E.06712
G1 X173.534 Y177.921 E.02379
G1 X174.83 Y179.216 E.06712
G1 X174.18 Y179.216 E.02379
G1 X172.885 Y177.921 E.06712
G1 X172.236 Y177.921 E.02379
G1 X173.531 Y179.216 E.06712
G1 X172.882 Y179.216 E.02379
G1 X171.587 Y177.921 E.06712
G1 X170.938 Y177.921 E.02379
G1 X172.233 Y179.216 E.06712
G1 X171.584 Y179.216 E.02379
G1 X170.288 Y177.921 E.06712
G1 X169.639 Y177.921 E.02379
G1 X170.935 Y179.216 E.06712
G1 X170.285 Y179.216 E.02379
G1 X168.99 Y177.921 E.06712
G1 X168.341 Y177.921 E.02379
G1 X169.636 Y179.216 E.06712
G1 X168.987 Y179.216 E.02379
G1 X167.692 Y177.921 E.06712
G1 X167.043 Y177.921 E.02379
G1 X168.338 Y179.216 E.06712
G2 X167.751 Y179.278 I-.075 J2.095 E.0217
G1 X166.393 Y177.921 E.07035
G1 X165.744 Y177.921 E.02379
G1 X167.314 Y179.49 E.08135
G2 X166.986 Y179.812 I1 J1.35 E.01687
G1 X165.095 Y177.921 E.09798
G1 X164.446 Y177.921 E.02379
G1 X166.695 Y180.17 E.11655
G1 X166.404 Y180.528 E.01691
G1 X163.797 Y177.921 E.13511
G1 X163.148 Y177.921 E.02379
G1 X166.113 Y180.886 E.15367
G1 X165.822 Y181.244 E.01691
G1 X162.499 Y177.921 E.17224
G1 X161.849 Y177.921 E.02379
G1 X165.531 Y181.603 E.1908
G1 X165.24 Y181.961 E.01691
G1 X161.2 Y177.921 E.20936
G1 X160.551 Y177.921 E.02379
G1 X164.95 Y182.319 E.22793
G1 X164.659 Y182.677 E.01691
G1 X159.902 Y177.921 E.24649
G1 X159.253 Y177.921 E.02379
G1 X164.368 Y183.036 E.26505
G1 X164.077 Y183.394 E.01691
G1 X158.604 Y177.921 E.28361
G1 X157.954 Y177.921 E.02379
G1 X163.786 Y183.752 E.30218
